; generated by PrusaSlicer 2.9.0 on 2025-03-15 at 15:41:15 UTC

; 

; external perimeters extrusion width = 0.42mm
; perimeters extrusion width = 0.42mm
; infill extrusion width = 0.60mm
; solid infill extrusion width = 0.60mm
; top infill extrusion width = 0.42mm
; first layer extrusion width = 0.42mm

M190 S70 ; set bed temperature and wait for it to be reached
M104 S210 ; set temperature
;TYPE:Custom
;Disable Endstops
M121
M211 S0
;Enable UBL
G29 A
M109 S210 ; set temperature and wait for it to be reached
G21 ; set units to millimeters
G90 ; use absolute coordinates
M82 ; use absolute distances for extrusion
G92 E0
; Filament gcode
M900 K0.07 ; set K-factor
M107
;LAYER_CHANGE
;Z:0.2
;HEIGHT:0.2
G1 E-.5 F2400
G92 E0
G1 Z.2 F7200
G1 X45.553 Y29.488
G1 E.5 F2400
M204 P500
;TYPE:Skirt/Brim
;WIDTH:0.42
G1 X46.33 Y28.415 E.54154
G1 X47.156 Y27.745 E.57489
G1 X48.36 Y27.207 E.61624
G1 X49.598 Y27.034 E.65543
G1 X154.587 Y27.039 E3.94729
G1 X155.523 Y27.176 E3.97695
G1 X156.418 Y27.506 E4.00686
G1 X156.93 Y27.801 E4.02539
G1 X157.66 Y28.405 E4.0551
G1 X158.253 Y29.153 E4.08503
G1 X158.642 Y29.915 E4.11186
G1 X158.898 Y30.827 E4.14156
G1 X158.966 Y31.598 E4.16583
G1 X158.966 Y218.4 E10.02288
G1 X158.822 Y219.531 E10.05863
G1 X158.446 Y220.513 E10.0916
G1 X157.664 Y221.591 E10.13336
G1 X156.842 Y222.256 E10.16651
G1 X155.632 Y222.795 E10.20804
G1 X154.4 Y222.966 E10.24704
G1 X49.6 Y222.966 E13.53297
G1 X48.469 Y222.822 E13.56872
G1 X47.487 Y222.446 E13.60169
G1 X46.415 Y221.67 E13.64318
G1 X45.745 Y220.844 E13.67653
G1 X45.207 Y219.64 E13.71788
G1 X45.034 Y218.4 E13.75714
G1 X45.034 Y31.6 E19.61412
G1 X45.178 Y30.469 E19.64987
G1 X45.532 Y29.545 E19.68089
M204 P1800
M204 T1500
G1 X45.532 Y29.545 F7200
G1 X45.882 Y29.679
M204 P500
G1 F2400
G1 X45.89 Y29.659 E19.68157
G1 X46.597 Y28.682 E19.71938
G1 X47.362 Y28.061 E19.75027
G1 X48.459 Y27.571 E19.78794
G1 X49.598 Y27.412 E19.824
G1 X154.567 Y27.416 E23.11523
G1 X155.426 Y27.54 E23.14244
G1 X156.248 Y27.842 E23.1699
G1 X156.725 Y28.117 E23.18716
G1 X157.394 Y28.672 E23.21441
G1 X157.937 Y29.359 E23.24187
G1 X158.29 Y30.05 E23.2662
G1 X158.526 Y30.886 E23.29344
G1 X158.588 Y31.598 E23.31585
G1 X158.589 Y218.4 E29.1729
G1 X158.458 Y219.433 E29.20555
G1 X158.11 Y220.343 E29.2361
G1 X157.398 Y221.324 E29.27411
G1 X156.637 Y221.94 E29.30481
G1 X155.535 Y222.431 E29.34264
G1 X154.4 Y222.589 E29.37857
G1 X49.6 Y222.589 E32.6645
G1 X48.566 Y222.458 E32.69718
G1 X47.657 Y222.11 E32.7277
G1 X46.682 Y221.403 E32.76546
G1 X46.061 Y220.638 E32.79635
G1 X45.571 Y219.541 E32.83402
G1 X45.411 Y218.4 E32.87015
G1 X45.411 Y31.6 E38.72713
G1 X45.542 Y30.567 E38.75978
G1 X45.861 Y29.735 E38.78772
M204 P1800
G1 E38.28772
G92 E0
G1 X45.861 Y29.735 F7200
G92 E0
G1 X56.677 Y209.742
G1 E.5 F2400
M204 P500
;TYPE:Perimeter
;WIDTH:0.467952
G1 X56.245 Y209.596 E.51612
;WIDTH:0.464058
G1 X55.692 Y209.511 E.53571
;WIDTH:0.463488
G1 X55.379 Y209.48 E.54671
G1 X54.965 Y209.311 E.56235
;WIDTH:0.419999
G1 X54.724 Y209.086 E.57269
G1 X54.566 Y208.758 E.58411
G1 X54.536 Y208.52 E.59163
G1 X54.536 Y41.48 E5.82904
G1 X54.601 Y41.134 E5.84008
G1 X54.793 Y40.833 E5.85127
G1 X54.965 Y40.689 E5.8583
;WIDTH:0.452333
G1 X55.162 Y40.601 E5.86565
;WIDTH:0.484666
G1 X55.36 Y40.512 E5.87362
G1 X55.957 Y40.463 E5.89562
;WIDTH:0.46399
G1 X56.45 Y40.352 E5.91331
G1 X56.984 Y40.114 E5.93378
G1 X57.397 Y39.822 E5.95149
;WIDTH:0.460771
G1 X57.838 Y39.377 E5.97326
G1 X58.177 Y38.85 E5.99503
G1 X58.399 Y38.264 E6.0168
G1 X58.494 Y37.644 E6.03859
;WIDTH:0.470486
G1 X58.517 Y37.379 E6.04805
G1 X58.603 Y37.172 E6.05602
;WIDTH:0.445243
G1 X58.689 Y36.965 E6.06352
;WIDTH:0.419999
G1 X58.914 Y36.724 E6.07386
G1 X59.242 Y36.566 E6.08528
G1 X59.48 Y36.536 E6.0928
G1 X144.52 Y36.536 E8.75917
G1 X144.769 Y36.569 E8.76705
G1 X145.068 Y36.711 E8.77743
G1 X145.311 Y36.966 E8.78847
;WIDTH:0.446625
G1 X145.399 Y37.18 E8.79624
;WIDTH:0.473251
G1 X145.486 Y37.395 E8.80454
G1 X145.546 Y38.003 E8.8264
;WIDTH:0.468421
G1 X145.65 Y38.449 E8.8426
G1 X145.887 Y38.983 E8.86327
G1 X146.187 Y39.408 E8.88168
;WIDTH:0.463588
G1 X146.578 Y39.797 E8.90097
;WIDTH:0.461628
G1 X146.857 Y40.008 E8.91315
;WIDTH:0.463991
G1 X147.297 Y40.255 E8.93082
G1 X147.853 Y40.436 E8.95129
G1 X148.356 Y40.494 E8.96902
;WIDTH:0.461744
G1 X148.621 Y40.521 E8.9783
G1 X149.035 Y40.689 E8.99386
;WIDTH:0.419999
G1 X149.294 Y40.939 E9.00515
G1 X149.432 Y41.235 E9.01539
G1 X149.464 Y41.48 E9.02314
G1 X149.464 Y208.52 E14.26055
G1 X149.408 Y208.842 E14.2708
G1 X149.203 Y209.172 E14.28298
G1 X149.008 Y209.328 E14.29081
;WIDTH:0.445331
G1 X148.79 Y209.408 E14.29858
;WIDTH:0.470662
G1 X148.572 Y209.487 E14.30683
G1 X147.996 Y209.546 E14.32742
;WIDTH:0.468421
G1 X147.551 Y209.65 E14.34359
G1 X147.019 Y209.886 E14.36418
;WIDTH:0.4683
G1 X146.493 Y210.266 E14.38713
;WIDTH:0.467953
G1 X146.15 Y210.638 E14.40501
;WIDTH:0.464063
G1 X145.847 Y211.109 E14.42462
;WIDTH:0.462186
G1 X145.702 Y211.424 E14.43671
;WIDTH:0.46061
G1 X145.541 Y212.019 E14.45812
;WIDTH:0.469263
G1 X145.489 Y212.561 E14.47742
G1 X145.401 Y212.86 E14.48847
;WIDTH:0.421872
G1 X145.167 Y213.207 E14.50166
;WIDTH:0.419999
G1 X144.866 Y213.399 E14.51285
G1 X144.52 Y213.464 E14.52389
G1 X59.48 Y213.464 E17.19026
G1 X59.134 Y213.399 E17.2013
G1 X58.833 Y213.207 E17.21249
;WIDTH:0.426059
G1 X58.597 Y212.861 E17.22583
;WIDTH:0.47007
G1 X58.513 Y212.572 E17.23652
G1 X58.454 Y211.997 E17.25705
;WIDTH:0.468422
G1 X58.35 Y211.551 E17.27325
G1 X58.113 Y211.017 E17.29392
G1 X57.747 Y210.507 E17.31613
G1 X57.285 Y210.084 E17.33829
;WIDTH:0.4683
G1 X56.733 Y209.763 E17.36088
M204 P1800
G1 X56.733 Y209.763 F7200
G1 X56.4 Y209.226
M204 P500
;WIDTH:0.419999
G1 F2400
G1 X56.21 Y209.165 E17.36714
G1 X55.42 Y209.083 E17.39204
G1 X55.17 Y208.995 E17.40035
G1 X54.995 Y208.815 E17.40822
G1 X54.913 Y208.52 E17.41782
G1 X54.913 Y41.48 E22.65523
G1 X54.952 Y41.272 E22.66187
G1 X55.067 Y41.091 E22.66859
G1 X55.17 Y41.005 E22.6728
G1 X55.449 Y40.915 E22.68199
G1 X56.04 Y40.852 E22.70063
G1 X56.554 Y40.743 E22.7171
G1 X57.205 Y40.453 E22.73945
G1 X57.782 Y40.034 E22.76181
G1 X58.259 Y39.504 E22.78417
G1 X58.615 Y38.887 E22.8065
G1 X58.835 Y38.209 E22.82885
G1 X58.917 Y37.42 E22.85372
G1 X59.005 Y37.17 E22.86203
G1 X59.185 Y36.995 E22.8699
G1 X59.432 Y36.915 E22.87804
G1 X144.52 Y36.913 E25.54591
G1 X144.794 Y36.983 E25.55478
G1 X144.995 Y37.171 E25.56341
G1 X145.085 Y37.449 E25.57257
G1 X145.158 Y38.085 E25.59264
G1 X145.283 Y38.613 E25.60965
G1 X145.547 Y39.205 E25.62997
G1 X145.966 Y39.782 E25.65233
G1 X146.496 Y40.259 E25.67469
G1 X147.113 Y40.615 E25.69702
G1 X147.791 Y40.835 E25.71937
G1 X148.58 Y40.917 E25.74424
G1 X148.83 Y41.005 E25.75255
G1 X149.019 Y41.211 E25.76132
G1 X149.087 Y41.48 E25.77002
G1 X149.087 Y208.52 E31.00743
G1 X149.033 Y208.762 E31.0152
G1 X148.879 Y208.959 E31.02304
G1 X148.563 Y209.084 E31.03369
G1 X147.913 Y209.158 E31.0542
G1 X147.387 Y209.283 E31.07115
G1 X146.796 Y209.547 E31.09145
G1 X146.205 Y209.98 E31.11442
G1 X145.742 Y210.495 E31.13613
G1 X145.385 Y211.113 E31.15851
G1 X145.165 Y211.791 E31.18086
G1 X145.083 Y212.58 E31.20573
G1 X144.995 Y212.83 E31.21404
G1 X144.815 Y213.005 E31.22191
G1 X144.52 Y213.087 E31.23151
G1 X59.48 Y213.087 E33.89788
G1 X59.272 Y213.048 E33.90452
G1 X59.091 Y212.933 E33.91124
G1 X58.952 Y212.724 E33.91911
G1 X58.897 Y212.207 E33.93541
G1 X58.792 Y211.675 E33.95241
G1 X58.648 Y211.233 E33.96699
G1 X58.415 Y210.743 E33.984
G1 X58.034 Y210.218 E34.00434
G1 X57.505 Y209.742 E34.02665
G1 X56.869 Y209.378 E34.04963
G1 X56.457 Y209.245 E34.0632
M204 P1800
G1 X56.457 Y209.245 F7200
G1 X56.357 Y208.816
M204 P500
;TYPE:External perimeter
G1 F2400
G1 X56.288 Y208.794 E34.06547
G1 X55.459 Y208.708 E34.0916
G1 X55.317 Y208.618 E34.09687
G1 X55.29 Y208.52 E34.10006
G1 X55.29 Y41.48 E39.33747
G1 X55.341 Y41.35 E39.34185
G1 X55.376 Y41.322 E39.34326
G1 X55.891 Y41.269 E39.35949
G1 X56.671 Y41.103 E39.38449
G1 X57.394 Y40.781 E39.40931
G1 X58.035 Y40.316 E39.43414
G1 X58.565 Y39.727 E39.45898
G1 X58.961 Y39.041 E39.48382
G1 X59.206 Y38.288 E39.50865
G1 X59.292 Y37.459 E39.53478
G1 X59.382 Y37.318 E39.54002
G1 X59.48 Y37.29 E39.54322
G1 X144.52 Y37.29 E42.20959
G1 X144.651 Y37.342 E42.21401
G1 X144.709 Y37.469 E42.21839
G1 X144.747 Y37.968 E42.23408
G1 X144.896 Y38.671 E42.25661
G1 X145.219 Y39.394 E42.28144
G1 X145.684 Y40.035 E42.30627
G1 X146.273 Y40.565 E42.33111
G1 X146.959 Y40.961 E42.35595
G1 X147.712 Y41.206 E42.38078
G1 X148.541 Y41.292 E42.40691
G1 X148.676 Y41.371 E42.41181
G1 X148.71 Y41.48 E42.41539
G1 X148.71 Y208.52 E47.6528
G1 X148.641 Y208.666 E47.65786
G1 X147.835 Y208.789 E47.68342
G1 X147.329 Y208.897 E47.69964
G1 X146.606 Y209.219 E47.72446
G1 X145.95 Y209.699 E47.74995
G1 X145.435 Y210.273 E47.77413
G1 X145.039 Y210.959 E47.79897
G1 X144.794 Y211.712 E47.8238
G1 X144.708 Y212.541 E47.84993
G1 X144.618 Y212.682 E47.85517
G1 X144.52 Y212.71 E47.85837
G1 X59.48 Y212.71 E50.52474
G1 X59.35 Y212.659 E50.52912
G1 X59.291 Y212.531 E50.53354
G1 X59.253 Y212.032 E50.54923
G1 X59.103 Y211.329 E50.57177
G1 X58.781 Y210.606 E50.59659
G1 X58.316 Y209.965 E50.62142
G1 X57.727 Y209.435 E50.64626
G1 X57.022 Y209.031 E50.67174
G1 X56.414 Y208.835 E50.69177
M204 P1800
G1 X56.019 Y208.77 F7200
G1 E50.19177 F2400
G92 E0
G1 X55.967 Y209.102 F7200
G1 X54.934 Y209.037
G1 X54.934 Y40.963
G1 X57.337 Y40.395
G1 X57.655 Y37.726
G1 X57.666 Y37.5
G1 X57.655 Y37.274
G1 X57.619 Y37.05
G1 X57.56 Y36.831
G1 X57.479 Y36.619
G1 X57.376 Y36.417
G1 X57.253 Y36.227
G1 X57.11 Y36.05
G1 X57.103 Y36.043
G1 X57.373 Y35.773
G1 E.5 F2400
M204 P500
;TYPE:Perimeter
G1 X57.512 Y35.916 E.50625
G1 X57.798 Y36.369 E.52305
G1 X57.983 Y36.872 E.53985
;WIDTH:0.445243
G1 X58.032 Y37.125 E.54847
;WIDTH:0.470486
G1 X58.082 Y37.379 E.55767
G1 X58.044 Y37.938 E.57759
;WIDTH:0.460773
G1 X57.897 Y38.457 E.59633
G1 X57.646 Y38.935 E.61509
G1 X57.301 Y39.349 E.63381
G1 X57.151 Y39.484 E.64082
G1 X56.703 Y39.784 E.65955
G1 X56.201 Y39.984 E.67833
;WIDTH:0.468873
G1 X55.62 Y40.078 E.69918
G1 X55.113 Y40.041 E.71718
;WIDTH:0.446616
G1 X54.549 Y39.878 E.73689
;WIDTH:0.419999
G1 X54.076 Y39.629 E.75365
G1 X53.522 Y39.12 E.77724
G1 X53.202 Y38.631 E.79556
G1 X53.017 Y38.128 E.81236
G1 X52.941 Y37.599 E.82912
G1 X52.976 Y37.065 E.8459
G1 X53.215 Y36.352 E.86948
G1 X53.532 Y35.861 E.8878
G1 X53.916 Y35.488 E.90459
G1 X54.369 Y35.202 E.92139
G1 X54.872 Y35.017 E.93819
G1 X55.391 Y34.942 E.95463
G1 X56.145 Y35.026 E.97842
G1 X56.694 Y35.234 E.99683
G1 X57.139 Y35.532 E1.01362
G1 X57.332 Y35.73 E1.02229
M204 P1800
G1 X57.332 Y35.73 F7200
G1 X57.253 Y36.206
M204 P500
G1 F2400
G1 X57.302 Y36.264 E1.02467
G1 X57.519 Y36.666 E1.03899
G1 X57.649 Y37.104 E1.05332
G1 X57.684 Y37.559 E1.06763
G1 X57.624 Y38.012 E1.08196
G1 X57.471 Y38.442 E1.09627
G1 X57.232 Y38.832 E1.11061
G1 X56.917 Y39.163 E1.12494
G1 X56.541 Y39.421 E1.13924
G1 X56.119 Y39.595 E1.15355
G1 X55.641 Y39.677 E1.16876
G1 X55.133 Y39.651 E1.18471
G1 X54.606 Y39.496 E1.20193
G1 X54.148 Y39.212 E1.21883
G1 X53.788 Y38.853 E1.23477
G1 X53.481 Y38.334 E1.25368
G1 X53.351 Y37.896 E1.26801
G1 X53.316 Y37.441 E1.28232
G1 X53.386 Y36.961 E1.29753
G1 X53.568 Y36.487 E1.31345
G1 X53.905 Y36.005 E1.33189
G1 X54.264 Y35.698 E1.3467
G1 X54.666 Y35.481 E1.36102
G1 X55.103 Y35.351 E1.37532
G1 X55.577 Y35.32 E1.39021
G1 X56.088 Y35.399 E1.40642
G1 X56.643 Y35.638 E1.42537
G1 X57.059 Y35.976 E1.44218
G1 X57.214 Y36.16 E1.44972
M204 P1800
G1 X57.015 Y36.524 F7200
M204 P500
;TYPE:External perimeter
G1 F2400
G1 X57.161 Y36.782 E1.45901
G1 X57.274 Y37.143 E1.47087
G1 X57.309 Y37.52 E1.48274
G1 X57.265 Y37.895 E1.49458
G1 X57.145 Y38.254 E1.50645
G1 X56.952 Y38.579 E1.5183
G1 X56.696 Y38.858 E1.53017
G1 X56.387 Y39.077 E1.54205
G1 X56.04 Y39.227 E1.5539
G1 X55.66 Y39.301 E1.56604
G1 X55.153 Y39.274 E1.58196
G1 X54.746 Y39.145 E1.59535
G1 X54.352 Y38.883 E1.61019
G1 X54.025 Y38.547 E1.62489
G1 X53.839 Y38.218 E1.63674
G1 X53.726 Y37.857 E1.6486
G1 X53.691 Y37.48 E1.66047
G1 X53.738 Y37.096 E1.6726
G1 X53.92 Y36.622 E1.68852
G1 X54.169 Y36.275 E1.70191
G1 X54.453 Y36.025 E1.71377
G1 X54.782 Y35.839 E1.72562
G1 X55.143 Y35.726 E1.73748
G1 X55.52 Y35.693 E1.74935
G1 X56.03 Y35.771 E1.76553
G1 X56.422 Y35.943 E1.77895
G1 X56.779 Y36.228 E1.79327
G1 X56.975 Y36.453 E1.80263
G1 X56.986 Y36.472 E1.80332
M204 P1800
G1 X57.165 Y36.829 F7200
G1 E1.30332 F2400
G92 E0
G1 X57.509 Y36.697 F7200
G1 X148.5 Y35.334
G1 X148.726 Y35.345
G1 X148.95 Y35.381
G1 X149.169 Y35.44
G1 X149.381 Y35.521
G1 X149.583 Y35.624
G1 X149.773 Y35.747
G1 X149.92 Y35.866
G1 X149.925 Y35.87
G1 X150.172 Y35.566
G1 E.5 F2400
M204 P500
;TYPE:Perimeter
G1 X150.512 Y35.916 E.5153
G1 X150.798 Y36.369 E.5321
G1 X150.983 Y36.872 E.5489
G1 X151.059 Y37.401 E.56566
G1 X151.024 Y37.936 E.58247
G1 X150.878 Y38.451 E.59925
G1 X150.628 Y38.924 E.61602
G1 X150.286 Y39.335 E.63278
G1 X149.673 Y39.772 E.65638
G1 X149.128 Y39.983 E.6747
;WIDTH:0.461744
G1 X148.621 Y40.078 E.69266
;WIDTH:0.464221
G1 X148.601 Y40.081 E.69337
G1 X148.062 Y40.044 E.7123
;WIDTH:0.460772
G1 X147.543 Y39.897 E.73104
G1 X147.066 Y39.646 E.74977
;WIDTH:0.472055
G1 X146.579 Y39.214 E.773
G1 X146.266 Y38.79 E.79181
;WIDTH:0.468421
G1 X146.047 Y38.297 E.8109
;WIDTH:0.470045
G1 X145.93 Y37.739 E.83115
;WIDTH:0.473251
G1 X145.914 Y37.399 E.84333
G1 X145.966 Y37.136 E.85292
;WIDTH:0.446625
G1 X146.017 Y36.873 E.86191
;WIDTH:0.419999
G1 X146.223 Y36.338 E.87989
G1 X146.502 Y35.904 E.89607
G1 X146.916 Y35.488 E.91447
G1 X147.369 Y35.202 E.93127
G1 X147.872 Y35.017 E.94807
G1 X148.391 Y34.942 E.96451
G1 X149.145 Y35.026 E.9883
G1 X149.694 Y35.234 E1.00671
G1 X150.128 Y35.525 E1.02309
M204 P1800
G1 X150.128 Y35.525 F7200
G1 X150.137 Y36.071
M204 P500
G1 F2400
G1 X150.302 Y36.264 E1.03105
G1 X150.519 Y36.666 E1.04537
G1 X150.649 Y37.104 E1.0597
G1 X150.684 Y37.559 E1.07401
G1 X150.624 Y38.012 E1.08834
G1 X150.471 Y38.442 E1.10265
G1 X150.232 Y38.832 E1.11699
G1 X149.894 Y39.179 E1.13218
G1 X149.468 Y39.456 E1.14811
G1 X149.012 Y39.624 E1.16335
G1 X148.559 Y39.684 E1.17768
G1 X148.045 Y39.639 E1.19386
G1 X147.558 Y39.471 E1.21001
G1 X147.147 Y39.212 E1.22524
G1 X146.788 Y38.853 E1.24116
G1 X146.502 Y38.39 E1.25822
G1 X146.351 Y37.896 E1.27442
G1 X146.316 Y37.441 E1.28873
G1 X146.376 Y36.989 E1.30303
G1 X146.54 Y36.543 E1.31793
G1 X146.819 Y36.109 E1.33411
G1 X147.168 Y35.768 E1.34941
G1 X147.666 Y35.481 E1.36743
G1 X148.103 Y35.351 E1.38173
G1 X148.577 Y35.32 E1.39662
G1 X149.088 Y35.399 E1.41283
G1 X149.643 Y35.638 E1.43178
G1 X150.005 Y35.916 E1.44609
G1 X150.098 Y36.025 E1.45058
M204 P1800
G1 X150.098 Y36.025 F7200
G1 X149.963 Y36.439
M204 P500
;TYPE:External perimeter
G1 F2400
G1 X149.975 Y36.453 E1.45116
G1 X150.161 Y36.782 E1.46301
G1 X150.274 Y37.143 E1.47487
G1 X150.309 Y37.52 E1.48674
G1 X150.265 Y37.895 E1.49858
G1 X150.145 Y38.254 E1.51045
G1 X149.952 Y38.579 E1.5223
G1 X149.688 Y38.863 E1.53446
G1 X149.262 Y39.139 E1.55038
G1 X148.857 Y39.274 E1.56377
G1 X148.52 Y39.309 E1.57439
G1 X148.105 Y39.265 E1.58747
G1 X147.746 Y39.145 E1.59934
G1 X147.414 Y38.946 E1.61148
G1 X147.055 Y38.586 E1.62742
G1 X146.839 Y38.218 E1.6408
G1 X146.726 Y37.857 E1.65266
G1 X146.691 Y37.48 E1.66453
G1 X146.734 Y37.105 E1.67636
G1 X146.857 Y36.747 E1.68823
G1 X147.136 Y36.313 E1.70441
G1 X147.453 Y36.025 E1.71784
G1 X147.782 Y35.839 E1.72969
G1 X148.143 Y35.726 E1.74155
G1 X148.52 Y35.693 E1.75342
G1 X149.03 Y35.771 E1.7696
G1 X149.422 Y35.943 E1.78302
G1 X149.725 Y36.169 E1.79487
G1 X149.923 Y36.394 E1.80427
M204 P1800
G1 X150.131 Y36.735 F7200
G1 E1.30427 F2400
G92 E0
G1 X150.455 Y36.571 F7200
G1 X150.479 Y36.619
G1 X150.56 Y36.831
G1 X150.619 Y37.05
G1 X150.655 Y37.274
G1 X150.666 Y37.5
G1 X150.655 Y37.726
G1 X150.619 Y37.95
G1 X150.56 Y38.169
G1 X150.479 Y38.381
G1 X150.376 Y38.583
G1 X150.253 Y38.773
G1 X150.118 Y38.939
G1 X149.011 Y210.397
G1 X149.113 Y210.02
G1 E.5 F2400
M204 P500
;TYPE:Perimeter
;WIDTH:0.464282
G1 X149.145 Y210.026 E.50114
;WIDTH:0.419999
G1 X149.694 Y210.234 E.51955
G1 X150.139 Y210.532 E.53634
G1 X150.512 Y210.916 E.55313
G1 X150.798 Y211.369 E.56993
G1 X150.983 Y211.872 E.58673
