; generated by PrusaSlicer 2.9.0 on 2025-02-22 at 08:51:55 UTC

; 

; external perimeters extrusion width = 0.42mm
; perimeters extrusion width = 0.42mm
; infill extrusion width = 0.60mm
; solid infill extrusion width = 0.60mm
; top infill extrusion width = 0.42mm
; first layer extrusion width = 0.42mm

M190 S70 ; set bed temperature and wait for it to be reached
M104 S210 ; set temperature
;TYPE:Custom
;Disable Endstops
M121
M211 S0
;Enable UBL
G29 A
M109 S210 ; set temperature and wait for it to be reached
G21 ; set units to millimeters
G90 ; use absolute coordinates
M82 ; use absolute distances for extrusion
G92 E0
; Filament gcode
M900 K0.07 ; set K-factor
M107
;LAYER_CHANGE
;Z:0.2
;HEIGHT:0.2
G1 E-.5 F2400
G92 E0
G1 Z.2 F7200
G1 X11.846 Y72.584
G1 E.5 F2400
M204 P800
;TYPE:Skirt/Brim
;WIDTH:0.42
G1 F1800
G1 X12.995 Y72.435 E.53633
G1 X191.187 Y72.439 E6.12342
G1 X192.108 Y72.572 E6.1526
G1 X193.004 Y72.899 E6.18251
G1 X193.813 Y73.405 E6.21243
G1 X194.252 Y73.797 E6.23088
G1 X194.843 Y74.538 E6.2606
G1 X195.242 Y75.316 E6.28801
G1 X195.5 Y76.234 E6.31791
G1 X195.566 Y77 E6.34202
G1 X195.566 Y173 E9.35203
G1 X195.397 Y174.227 E9.39086
G1 X194.856 Y175.442 E9.43256
G1 X194.19 Y176.265 E9.46576
G1 X193.14 Y177.032 E9.50653
G1 X192.131 Y177.422 E9.54045
G1 X191.005 Y177.565 E9.57604
G1 X13 Y177.566 E15.15726
G1 X11.768 Y177.395 E15.19626
G1 X10.558 Y176.856 E15.23779
G1 X9.739 Y176.194 E15.27081
G1 X8.968 Y175.139 E15.31178
G1 X8.579 Y174.136 E15.34551
G1 X8.435 Y173.005 E15.38126
G1 X8.434 Y77 E18.39143
G1 X8.6 Y75.785 E18.42988
G1 X9.131 Y74.579 E18.4712
G1 X9.793 Y73.752 E18.50441
G1 X10.86 Y72.968 E18.54593
G1 X11.79 Y72.606 E18.57722
M204 P1800
M204 T1500
G1 X11.79 Y72.606 F7200
G1 X11.926 Y72.955
M204 P800
G1 F1800
G1 X11.946 Y72.948 E18.57788
G1 X12.995 Y72.812 E18.61105
G1 X191.167 Y72.816 E24.19751
G1 X192.012 Y72.937 E24.22427
G1 X192.835 Y73.236 E24.25172
G1 X193.577 Y73.7 E24.27916
G1 X193.986 Y74.065 E24.29635
G1 X194.528 Y74.745 E24.32361
G1 X194.89 Y75.451 E24.34849
G1 X195.127 Y76.293 E24.37592
G1 X195.189 Y77 E24.39817
G1 X195.189 Y173 E27.40818
G1 X195.032 Y174.129 E27.44392
G1 X194.54 Y175.237 E27.48193
G1 X193.924 Y175.998 E27.51263
G1 X192.967 Y176.697 E27.54979
G1 X192.033 Y177.058 E27.58119
G1 X191.005 Y177.188 E27.61368
G1 X13 Y177.189 E33.1949
G1 X11.866 Y177.031 E33.2308
G1 X10.763 Y176.54 E33.26866
G1 X10.006 Y175.928 E33.29918
G1 X9.303 Y174.966 E33.33654
G1 X8.943 Y174.038 E33.36775
G1 X8.812 Y173.005 E33.4004
G1 X8.811 Y77 E36.41057
G1 X8.965 Y75.881 E36.44599
G1 X9.448 Y74.782 E36.48363
G1 X10.061 Y74.018 E36.51434
G1 X11.033 Y73.303 E36.55217
G1 X11.871 Y72.977 E36.58036
M204 P1800
G1 E36.08036 F2400
G92 E0
G1 X11.871 Y72.977 F7200
G92 E0
G1 X119.958 Y107.882
G1 E.5 F2400
M204 P800
;TYPE:Perimeter
;WIDTH:0.419999
G1 F1800
G1 X119.958 Y111.65 E.61814
G1 X119.85 Y112.261 E.63759
G1 X119.69 Y112.619 E.64988
G1 X119.391 Y113.025 E.66569
G1 X119.149 Y113.225 E.67553
G1 X118.68 Y113.488 E.69239
G1 X118.143 Y113.602 E.7096
G1 X117.996 Y113.613 E.71422
G1 X107.793 Y113.613 E1.03413
G1 X107.597 Y113.593 E1.04031
G1 X107.053 Y113.467 E1.05782
G1 X106.825 Y113.345 E1.06593
G1 X106.402 Y113.031 E1.08245
G1 X106.219 Y112.804 E1.09159
G1 X105.948 Y112.317 E1.10906
G1 X105.842 Y111.798 E1.12567
G1 X105.836 Y101.342 E1.45351
G1 X105.881 Y101.053 E1.46268
G1 X106.041 Y100.571 E1.4786
G1 X106.376 Y100.099 E1.49675
G1 X106.637 Y99.875 E1.50753
G1 X107.111 Y99.609 E1.52457
G1 X107.642 Y99.497 E1.54159
G1 X107.793 Y99.485 E1.54634
G1 X117.995 Y99.485 E1.86622
G1 X118.606 Y99.594 E1.88568
G1 X118.936 Y99.734 E1.89692
G1 X119.351 Y100.036 E1.91301
G1 X119.57 Y100.294 E1.92362
G1 X119.831 Y100.758 E1.94031
G1 X119.947 Y101.3 E1.95769
G1 X119.958 Y101.447 E1.96231
G1 X119.958 Y107.822 E2.16219
M204 P1800
G1 X119.958 Y107.822 F7200
G1 X119.581 Y108.259
M204 P800
G1 F1800
G1 X119.581 Y111.65 E2.26851
G1 X119.481 Y112.182 E2.28548
G1 X119.385 Y112.397 E2.29286
G1 X119.077 Y112.809 E2.30899
G1 X118.592 Y113.111 E2.3269
G1 X118.398 Y113.179 E2.33335
G1 X117.996 Y113.236 E2.34608
G1 X107.675 Y113.224 E2.66969
G1 X107.183 Y113.113 E2.6855
G1 X106.703 Y112.79 E2.70364
G1 X106.545 Y112.615 E2.71103
G1 X106.298 Y112.176 E2.72682
G1 X106.207 Y111.651 E2.74353
G1 X106.213 Y101.342 E3.06676
G1 X106.369 Y100.769 E3.08538
G1 X106.467 Y100.588 E3.09183
G1 X106.81 Y100.211 E3.10781
G1 X107.256 Y99.957 E3.1239
G1 X107.793 Y99.862 E3.141
G1 X117.995 Y99.862 E3.46088
G1 X118.528 Y99.963 E3.47789
G1 X118.742 Y100.058 E3.48523
G1 X119.173 Y100.386 E3.50221
G1 X119.456 Y100.851 E3.51928
G1 X119.525 Y101.045 E3.52574
G1 X119.581 Y101.447 E3.53847
G1 X119.581 Y108.199 E3.75017
M204 P1800
G1 X119.581 Y108.199 F7200
G1 X119.204 Y108.426
M204 P800
;TYPE:External perimeter
G1 F1800
G1 X119.204 Y111.65 E3.85126
G1 X119.093 Y112.155 E3.86747
G1 X118.772 Y112.571 E3.88395
G1 X118.339 Y112.807 E3.89941
G1 X117.996 Y112.859 E3.91029
G1 X107.754 Y112.855 E4.23142
G1 X107.268 Y112.735 E4.24712
G1 X106.872 Y112.427 E4.26285
G1 X106.634 Y111.98 E4.27873
G1 X106.584 Y111.651 E4.28916
G1 X106.59 Y101.342 E4.61239
G1 X106.741 Y100.854 E4.62841
G1 X107.016 Y100.527 E4.64181
G1 X107.444 Y100.293 E4.6571
G1 X107.793 Y100.239 E4.66817
G1 X117.995 Y100.239 E4.98805
G1 X118.485 Y100.343 E5.00376
G1 X118.893 Y100.639 E5.01956
G1 X119.147 Y101.081 E5.03554
G1 X119.204 Y101.447 E5.04715
G1 X119.204 Y108.366 E5.26409
M204 P1800
G1 X119.204 Y108.766 F7200
G1 E4.76409 F2400
G92 E0
G1 X119.56 Y108.766 F7200
G1 X127.878 Y112.736
G1 X127.607 Y113.008
G1 E.5 F2400
M204 P800
;TYPE:Perimeter
G1 F1800
G1 X127.451 Y112.842 E.50714
G1 X127.158 Y112.319 E.52594
G1 X127.051 Y111.798 E.54262
G1 X127.039 Y111.65 E.54728
G1 X127.045 Y101.341 E.87051
G1 X127.064 Y101.151 E.8765
G1 X127.243 Y100.581 E.89523
G1 X127.557 Y100.136 E.91231
G1 X127.821 Y99.89 E.92362
G1 X128.26 Y99.637 E.93951
G1 X128.533 Y99.549 E.9485
G1 X129.002 Y99.485 E.96334
G1 X139.204 Y99.485 E1.28322
G1 X139.815 Y99.594 E1.30268
G1 X140.16 Y99.744 E1.31448
G1 X140.576 Y100.05 E1.33067
G1 X140.754 Y100.252 E1.33911
G1 X141.016 Y100.695 E1.35525
G1 X141.147 Y101.251 E1.37316
G1 X141.167 Y101.941 E1.3948
G1 X141.167 Y111.65 E1.69922
G1 X141.059 Y112.261 E1.71867
G1 X140.899 Y112.619 E1.73096
G1 X140.524 Y113.103 E1.75016
G1 X139.99 Y113.437 E1.76991
G1 X139.666 Y113.552 E1.78069
G1 X139.205 Y113.613 E1.79527
G1 X129.002 Y113.613 E2.11518
G1 X128.392 Y113.504 E2.13461
G1 X128.1 Y113.389 E2.14445
G1 X127.69 Y113.095 E2.16027
G1 X127.649 Y113.051 E2.16216
M204 P1800
G1 X127.649 Y113.051 F7200
G1 X127.724 Y112.537
M204 P800
G1 F1800
G1 X127.542 Y112.247 E2.1729
G1 X127.461 Y111.976 E2.18177
G1 X127.416 Y111.65 E2.19209
G1 X127.433 Y101.228 E2.51886
G1 X127.597 Y100.723 E2.53551
G1 X127.895 Y100.317 E2.5513
G1 X128.4 Y99.99 E2.57016
G1 X128.593 Y99.921 E2.57659
G1 X129.002 Y99.862 E2.58955
G1 X139.204 Y99.862 E2.90943
G1 X139.737 Y99.963 E2.92644
G1 X139.951 Y100.058 E2.93378
G1 X140.368 Y100.371 E2.95013
G1 X140.664 Y100.83 E2.96725
G1 X140.778 Y101.33 E2.98333
G1 X140.79 Y111.65 E3.30691
G1 X140.69 Y112.182 E3.32388
G1 X140.594 Y112.397 E3.33126
G1 X140.269 Y112.825 E3.34811
G1 X139.801 Y113.111 E3.36531
G1 X139.294 Y113.229 E3.38163
G1 X129.002 Y113.236 E3.70433
G1 X128.47 Y113.135 E3.72131
G1 X128.255 Y113.04 E3.72868
G1 X127.851 Y112.739 E3.74448
G1 X127.756 Y112.587 E3.7501
M204 P1800
G1 X127.756 Y112.587 F7200
G1 X127.963 Y112.21
M204 P800
;TYPE:External perimeter
G1 F1800
G1 X127.848 Y112.007 E3.75742
G1 X127.793 Y111.651 E3.76871
G1 X127.803 Y101.304 E4.09313
G1 X127.917 Y100.923 E4.1056
G1 X128.225 Y100.527 E4.12133
G1 X128.653 Y100.293 E4.13662
G1 X129.002 Y100.239 E4.14769
G1 X139.207 Y100.239 E4.46766
G1 X139.703 Y100.347 E4.48358
G1 X140.11 Y100.648 E4.49945
G1 X140.321 Y100.994 E4.51216
G1 X140.413 Y101.448 E4.52668
G1 X140.413 Y111.65 E4.84656
G1 X140.289 Y112.175 E4.86347
G1 X139.981 Y112.571 E4.8792
G1 X139.548 Y112.807 E4.89466
G1 X139.205 Y112.859 E4.90554
G1 X129.002 Y112.859 E5.22545
G1 X128.511 Y112.755 E5.24119
G1 X128.104 Y112.458 E5.25699
G1 X127.993 Y112.262 E5.26405
M204 P1800
G1 X127.843 Y111.892 F7200
G1 E4.76405 F2400
G92 E0
G1 X127.467 Y111.951 F7200
G1 X127.445 Y111.813
G1 X127.438 Y111.664
G1 X127.438 Y101.434
G1 X127.445 Y101.285
G1 X127.471 Y101.123
G1 X127.514 Y100.965
G1 X127.572 Y100.812
G1 X127.647 Y100.666
G1 X127.736 Y100.528
G1 X127.839 Y100.401
G1 X127.955 Y100.285
G1 X128.083 Y100.182
G1 X128.22 Y100.092
G1 X128.366 Y100.018
G1 X128.519 Y99.959
G1 X128.678 Y99.917
G1 X146.988 Y96.937
G1 X147.212 Y96.901
G1 X147.438 Y96.89
G1 X147.665 Y96.901
G1 X147.889 Y96.937
G1 X148.108 Y96.996
G1 X148.32 Y97.077
G1 X148.522 Y97.18
G1 X148.7 Y96.835
G1 E.5 F2400
M204 P800
;TYPE:Perimeter
G1 F1800
G1 X149.077 Y97.088 E.51424
G1 X149.451 Y97.472 E.53105
G1 X149.736 Y97.925 E.54783
G1 X149.921 Y98.428 E.56463
G1 X149.997 Y98.957 E.58139
G1 X149.962 Y99.492 E.5982
G1 X149.816 Y100.007 E.61498
G1 X149.567 Y100.48 E.63174
G1 X149.224 Y100.891 E.64852
G1 X149.037 Y101.051 E.65624
G1 X148.612 Y101.328 E.67215
G1 X148.067 Y101.539 E.69047
G1 X147.874 Y101.58 E.69666
G1 X147.34 Y101.615 E.71344
G1 X146.81 Y101.539 E.73023
G1 X146.307 Y101.354 E.74703
G1 X145.855 Y101.069 E.76378
G1 X145.451 Y100.664 E.78172
G1 X145.168 Y100.232 E.79791
G1 X144.956 Y99.684 E.81633
G1 X144.879 Y99.155 E.83309
G1 X144.915 Y98.62 E.8499
G1 X145.06 Y98.106 E.86665
G1 X145.443 Y97.458 E.89025
G1 X145.854 Y97.044 E.90854
G1 X146.307 Y96.758 E.92534
G1 X146.81 Y96.573 E.94214
G1 X147.33 Y96.498 E.95861
G1 X148.083 Y96.582 E.98237
G1 X148.633 Y96.79 E1.00081
G1 X148.65 Y96.802 E1.00146
M204 P1800
G1 X148.65 Y96.802 F7200
G1 X148.771 Y97.344
M204 P800
G1 F1800
G1 X148.944 Y97.472 E1.00821
G1 X149.24 Y97.82 E1.02253
G1 X149.458 Y98.222 E1.03687
G1 X149.595 Y98.736 E1.05355
G1 X149.622 Y99.115 E1.06546
G1 X149.562 Y99.568 E1.07979
G1 X149.41 Y99.998 E1.09409
G1 X149.171 Y100.388 E1.10843
G1 X148.832 Y100.735 E1.12364
G1 X148.406 Y101.012 E1.13957
G1 X147.934 Y101.185 E1.15533
G1 X147.835 Y101.205 E1.1585
G1 X147.379 Y101.24 E1.17284
G1 X146.926 Y101.18 E1.18717
G1 X146.496 Y101.027 E1.20148
G1 X146.107 Y100.789 E1.21578
G1 X145.766 Y100.457 E1.2307
G1 X145.484 Y100.025 E1.24688
G1 X145.299 Y99.51 E1.26404
G1 X145.254 Y98.997 E1.28019
G1 X145.314 Y98.544 E1.29452
G1 X145.482 Y98.089 E1.30973
G1 X145.759 Y97.663 E1.32566
G1 X146.118 Y97.314 E1.34136
G1 X146.566 Y97.05 E1.35766
G1 X147.041 Y96.907 E1.37321
G1 X147.516 Y96.876 E1.38813
G1 X148.026 Y96.955 E1.40431
G1 X148.515 Y97.153 E1.42085
G1 X148.723 Y97.308 E1.42898
M204 P1800
G1 X148.723 Y97.308 F7200
G1 X148.673 Y97.745
M204 P800
;TYPE:External perimeter
G1 F1800
G1 X148.702 Y97.768 E1.43014
G1 X148.913 Y98.009 E1.44018
G1 X149.099 Y98.338 E1.45203
G1 X149.22 Y98.776 E1.46628
G1 X149.247 Y99.076 E1.47572
G1 X149.204 Y99.451 E1.48755
G1 X149.083 Y99.81 E1.49943
G1 X148.89 Y100.135 E1.51128
G1 X148.626 Y100.419 E1.52344
G1 X148.201 Y100.695 E1.53933
G1 X147.795 Y100.83 E1.55275
G1 X147.419 Y100.865 E1.56459
G1 X147.043 Y100.821 E1.57646
G1 X146.685 Y100.701 E1.5883
G1 X146.359 Y100.508 E1.60018
G1 X146.082 Y100.251 E1.61203
G1 X145.799 Y99.819 E1.62822
G1 X145.665 Y99.413 E1.64163
G1 X145.629 Y99.036 E1.6535
G1 X145.673 Y98.661 E1.66534
G1 X145.799 Y98.294 E1.67751
G1 X146.075 Y97.868 E1.69343
G1 X146.391 Y97.581 E1.70681
G1 X146.721 Y97.395 E1.71869
G1 X147.081 Y97.282 E1.73052
G1 X147.458 Y97.249 E1.74239
G1 X147.968 Y97.327 E1.75857
G1 X148.36 Y97.499 E1.77199
G1 X148.626 Y97.708 E1.7826
M204 P1800
G1 X148.895 Y98.003 F7200
G1 E1.2826 F2400
G92 E0
G1 X149.204 Y97.802 F7200
G1 X149.315 Y97.973
G1 X149.418 Y98.175
G1 X149.499 Y98.386
G1 X149.557 Y98.606
G1 X149.593 Y98.83
G1 X149.605 Y99.056
G1 X149.593 Y99.283
G1 X149.557 Y99.506
G1 X149.499 Y99.725
G1 X149.417 Y99.937
G1 X142.376 Y116.923
G1 X138.725 Y116.923
G1 X138.576 Y116.931
G1 X138.414 Y116.956
G1 X138.255 Y116.999
G1 X138.102 Y117.057
G1 X137.956 Y117.132
G1 X137.819 Y117.221
G1 X137.691 Y117.324
G1 X137.575 Y117.44
G1 X137.472 Y117.568
G1 X137.383 Y117.705
G1 X137.308 Y117.851
G1 X137.25 Y118.004
G1 X137.207 Y118.163
G1 X137.181 Y118.325
G1 X137.173 Y118.488
G1 X137.181 Y118.652
G1 X137.207 Y118.814
G1 X137.249 Y118.973
G1 X137.308 Y119.126
G1 X137.383 Y119.272
G1 X137.472 Y119.409
G1 X137.575 Y119.537
G1 X137.691 Y119.653
G1 X137.819 Y119.756
G1 X137.956 Y119.845
G1 X138.102 Y119.92
G1 X138.255 Y119.978
G1 X138.414 Y120.021
G1 X138.576 Y120.046
G1 X138.725 Y120.054
G1 X141.291 Y120.054
G1 X141.291 Y120.07
G1 E.5 F2400
M204 P800
;TYPE:Perimeter
G1 F1800
G1 X138.633 Y120.07 E.58334
G1 X138.053 Y119.911 E.6022
G1 X137.625 Y119.612 E.61857
G1 X137.469 Y119.419 E.62635
G1 X137.224 Y118.961 E.64264
G1 X137.161 Y118.447 E.65888
G1 X137.176 Y118.242 E.66532
G1 X137.292 Y117.836 E.67856
G1 X137.598 Y117.397 E.69534
G1 X137.772 Y117.24 E.70269
G1 X138.322 Y116.961 E.72203
G1 X138.738 Y116.901 E.73521
G1 X146.847 Y116.907 E.98946
G1 X146.974 Y116.922 E.99347
G1 X147.458 Y117.078 E1.00941
G1 X147.629 Y117.183 E1.0157
G1 X147.999 Y117.524 E1.03148
G1 X148.241 Y117.975 E1.04753
G1 X148.318 Y118.537 E1.06532
G1 X148.302 Y118.742 E1.07177
G1 X148.169 Y119.175 E1.08597
G1 X147.844 Y119.625 E1.10337
G1 X147.392 Y119.936 E1.12057
G1 X146.847 Y120.07 E1.13817
G1 X141.351 Y120.07 E1.31049
M204 P1800
G1 X141.351 Y120.07 F7200
G1 X141.124 Y119.693
M204 P800
;TYPE:External perimeter
G1 F1800
G1 X138.633 Y119.693 E1.38859
G1 X138.111 Y119.521 E1.40582
G1 X137.796 Y119.23 E1.41927
G1 X137.58 Y118.824 E1.43369
G1 X137.541 Y118.338 E1.44898
G1 X137.653 Y117.963 E1.46125
G1 X137.961 Y117.566 E1.477
G1 X138.389 Y117.332 E1.49229
G1 X138.738 Y117.278 E1.50336
G1 X146.889 Y117.289 E1.75893
G1 X147.368 Y117.457 E1.77485
G1 X147.734 Y117.803 E1.79064
G1 X147.898 Y118.153 E1.80276
G1 X147.937 Y118.645 E1.81823
G1 X147.798 Y119.052 E1.83171
G1 X147.529 Y119.402 E1.84555
G1 X147.203 Y119.604 E1.85757
G1 X146.847 Y119.693 E1.86908
G1 X141.184 Y119.693 E2.04664
M204 P1800
G1 X140.784 Y119.693 F7200
G1 E1.54664 F2400
G92 E0
G1 X140.784 Y120.054 F7200
G1 X138.255 Y120.999
G1 X138.102 Y121.057
G1 X137.956 Y121.132
G1 X137.819 Y121.221
G1 X137.691 Y121.324
G1 X137.575 Y121.44
G1 X137.472 Y121.568
G1 X137.383 Y121.705
G1 X137.308 Y121.851
G1 X137.25 Y122.004
G1 X137.207 Y122.163
G1 X137.181 Y122.325
G1 X137.173 Y122.488
G1 X137.181 Y122.652
G1 X137.207 Y122.814
G1 X137.249 Y122.973
G1 X137.308 Y123.126
G1 X137.383 Y123.272
G1 X137.472 Y123.409
G1 X137.575 Y123.537
G1 X137.691 Y123.653
G1 X137.819 Y123.756
G1 X137.956 Y123.845
G1 X138.102 Y123.92
G1 X138.255 Y123.978
G1 X138.414 Y124.021
G1 X138.576 Y124.046
G1 X138.725 Y124.054
G1 X140.555 Y124.054
G1 X140.51 Y124.923
G1 X140.51 Y124.903
G1 E.5 F2400
M204 P800
;TYPE:Perimeter
G1 F1800
G1 X146.847 Y124.907 E.69869
G1 X147.425 Y125.066 E.71749
G1 X147.629 Y125.183 E.72486
G1 X148.02 Y125.55 E.74167
G1 X148.267 Y126.068 E.75966
G1 X148.32 Y126.566 E.77536
G1 X148.293 Y126.77 E.78181
G1 X148.128 Y127.255 E.79787
G1 X147.782 Y127.685 E.81518
G1 X147.301 Y127.968 E.83268
G1 X146.847 Y128.07 E.84727
G1 X138.633 Y128.07 E1.10481
G1 X138.054 Y127.911 E1.12364
G1 X137.85 Y127.794 E1.13101
G1 X137.432 Y127.387 E1.1493
G1 X137.218 Y126.936 E1.16495
G1 X137.158 Y126.381 E1.18245
G1 X137.274 Y125.881 E1.19854
G1 X137.598 Y125.397 E1.2168
G1 X137.772 Y125.24 E1.22415
G1 X138.152 Y125.02 E1.23792
G1 X138.738 Y124.901 E1.25667
G1 X140.45 Y124.903 E1.31035
M204 P1800
G1 X140.45 Y124.903 F7200
G1 X140.677 Y125.28
M204 P800
;TYPE:External perimeter
G1 F1800
G1 X146.846 Y125.284 E1.50377
G1 X147.339 Y125.437 E1.51995
G1 X147.717 Y125.776 E1.53587
G1 X147.896 Y126.137 E1.5485
G1 X147.939 Y126.638 E1.56427
G1 X147.77 Y127.118 E1.58023
G1 X147.526 Y127.406 E1.59207
G1 X147.203 Y127.604 E1.60395
G1 X146.847 Y127.693 E1.61546
G1 X138.633 Y127.693 E1.873
G1 X138.111 Y127.521 E1.89023
G1 X137.744 Y127.174 E1.90607
G1 X137.58 Y126.824 E1.91819
G1 X137.541 Y126.332 E1.93366
G1 X137.678 Y125.928 E1.94704
G1 X137.961 Y125.566 E1.96145
G1 X138.389 Y125.332 E1.97674
G1 X138.738 Y125.278 E1.98781
